X:1
T:Jerusalem
T:Jerusalem - (devoted to Keith Emerson)
T:H.Parry - D.W.Roman
C:H.Parry - D.W.Roman
%%score { ( 1 2 ) | ( 3 5 ) | 4 }
L:1/8
Q:1/4=70
M:3/4
K:D
V:1 treble nm="Organo a canne" snm="Org."
V:2 treble 
V:3 bass 
V:5 bass 
V:4 bass-8 
V:1
|:"^\n" z2 z D FA | B3 d BA/G/ | A4 BA/G/ | AF E2 D2 | B,3 D FA | B3 d cB/A/ | B3 B cF | %7
 A^G F2 E2 | A3 E EF | G3 B A>E | G3 E GA | B3 d =cA | B3 G Bd | e>d c2 c>B | A3 A dB | %15
 A>B F2 [G,E]2 | D4 z2 :| %17
V:2
|: z3 D3 | [DG]6 | [DF]4 [DG]2 | [B,F]2 B,2 B,2 | G,3 B,3 | [DF]6 | D6 | [B,D]2 [A,C]4 | %8
 [A,D]4 [A,B,]2 | [B,E]4 [=CE]2 | [B,E]6 | [DG]4 [EG][DF] | [DG]6 | [GB]4 [EA]2 | [DF]4 [DG]2 | %15
 [DF]2 [B,D]2 C2 | [F,A,]4 z2 :| %17
V:3
|:"^Re" [D,,D,]4 [C,,C,]2 |"^Si-" B,,2"^Sol" G,,4 |"^Re" [F,,F,]2 [D,,D,]2"^Sol" [G,,G,]2 | %3
"^Sol" [F,,F,]2"^Si-" [B,,F,]4 |"^Sol" [G,,D,]2"^Re" [D,,D,]4 |"^Si-" [B,,B,]4"^Fa#-" [A,,A,]2 | %6
"^Si-" [B,,B,]2"^Mi7" [^G,,^G,]2"^La" [A,,A,]2 |"^Si-6" [B,,B,]2"^Fa#-" [F,,F,]4 | %8
"^Re" [D,,D,]2 [C,,C,]2"^Si7" [^D,,^D,]2 |"^Mi-" [E,,E,]4"^La-" [A,,A,]2 | %10
"^Mi-" [E,,E,]4"^La7" [C,,C,]2 |"^Sol" [D,,B,,]2"^Re" [D,,D,]2"^Do" [=C,,=C,]"^Re"[D,,D,] | %12
"^Sol" [G,,G,]4 [F,,F,]2 |"^Mi-" [E,,E,]4"^La7" [A,,A,]2 | %14
"^Re" [D,,D,]2"^Si-" [F,,B,,]2"^Sol" [G,,G,]2 |"^Re" [F,,F,]2"^Sol" [G,,G,]2"^La" [A,,E,]2 | %16
"^Re" [D,,D,]4 z2 :| %17
V:4
|: D,,6- | D,,6- | D,,6- | D,,6- | D,,6 | F,,6 | B,,2 ^G,,2 A,,2 | B,,2 C,4 | D,4 ^D,,2 | E,,6- | %10
 E,,6 | D,,4 C,,2 | G,,6 | E,,6 | D,,6 | F,,2 G,,2 A,,2 | D,,6 :| %17
V:5
|: x6 | D,,6 | x6 | x6 | x6 | x6 | x6 | x6 | x6 | x6 | x6 | x6 | x6 | x6 | x6 | x6 | x6 :| %17

